assets/img/icons/intro/smart.svg

<svg width="81" height="80" viewBox="0 0 81 80" fill="none" xmlns="http://www.w3.org/2000/svg">
<path d="M16.7671 37.3398V65.2065H64.0004V37.3398" stroke="#A89365" stroke-width="2" stroke-linecap="round" stroke-linejoin="round"/>
<path d="M40.367 15.3398L71.2004 37.6399V41.5732L40.367 21.9065L9.53369 41.6065V37.6399L20.0337 30.0398L40.367 15.3398ZM40.367 15.3398L26.6004 25.3065V19.9398H20.0337V30.0732L40.367 15.3398Z" stroke="#A89365" stroke-width="2" stroke-linecap="round" stroke-linejoin="round"/>
<path d="M19.3669 16.0063H27.2335C27.6002 16.0063 27.9002 16.3063 27.9002 16.673V19.3063C27.9002 19.673 27.6002 19.973 27.2335 19.973H19.3669C19.0002 19.973 18.7002 19.673 18.7002 19.3063V16.673C18.7335 16.3063 19.0002 16.0063 19.3669 16.0063Z" stroke="#A89365" stroke-width="2" stroke-linecap="round" stroke-linejoin="round"/>
<path d="M53.8339 50.4397C53.5672 50.7064 53.1672 50.7064 52.9006 50.4397C45.8339 43.8731 34.9006 43.8731 27.8672 50.4397C27.6006 50.6731 27.2006 50.6731 26.9339 50.4397C26.6672 50.2064 26.6672 49.7731 26.9339 49.5397C34.5006 42.4731 46.2672 42.4731 53.8339 49.5397C54.0672 49.7731 54.0672 50.1731 53.8339 50.4397ZM50.3339 53.0064C50.6006 53.2397 50.6006 53.6397 50.3672 53.9064C50.3672 53.9064 50.3672 53.9064 50.3339 53.9397C50.0672 54.2064 49.6672 54.2064 49.4006 53.9397C44.2672 49.3064 36.4672 49.3064 31.3339 53.9397C31.0672 54.1731 30.6672 54.1731 30.4006 53.9397C30.1339 53.7064 30.1339 53.3064 30.4006 53.0397C30.4006 53.0397 30.4006 53.0397 30.4339 53.0064C36.0339 47.8397 44.7006 47.8397 50.3339 53.0064ZM46.8672 57.4064C47.1006 57.1731 47.1339 56.7731 46.9006 56.5397L46.8672 56.5064C43.1672 53.2731 37.6339 53.2731 33.9006 56.5064C33.6339 56.7397 33.6339 57.1397 33.8672 57.3731L33.9006 57.4064C34.1672 57.6731 34.5672 57.6731 34.8339 57.4397C38.0339 54.7064 42.7339 54.7064 45.9339 57.4397C46.2006 57.6731 46.6006 57.6397 46.8672 57.4064Z" fill="#A89365"/>
<path d="M53.8339 50.4397C53.5672 50.7064 53.1672 50.7064 52.9006 50.4397C45.8339 43.8731 34.9006 43.8731 27.8672 50.4397C27.6006 50.6731 27.2006 50.6731 26.9339 50.4397C26.6672 50.2064 26.6672 49.7731 26.9339 49.5397C34.5006 42.4731 46.2672 42.4731 53.8339 49.5397C54.0672 49.7731 54.0672 50.1731 53.8339 50.4397ZM50.3339 53.0064C50.6006 53.2397 50.6006 53.6397 50.3672 53.9064C50.3672 53.9064 50.3672 53.9064 50.3339 53.9397C50.0672 54.2064 49.6672 54.2064 49.4006 53.9397C44.2672 49.3064 36.4672 49.3064 31.3339 53.9397C31.0672 54.1731 30.6672 54.1731 30.4006 53.9397C30.1339 53.7064 30.1339 53.3064 30.4006 53.0397C30.4006 53.0397 30.4006 53.0397 30.4339 53.0064C36.0339 47.8397 44.7006 47.8397 50.3339 53.0064ZM46.8672 57.4064C47.1006 57.1731 47.1339 56.7731 46.9006 56.5397L46.8672 56.5064C43.1672 53.2731 37.6339 53.2731 33.9006 56.5064C33.6339 56.7397 33.6339 57.1397 33.8672 57.3731L33.9006 57.4064C34.1672 57.6731 34.5672 57.6731 34.8339 57.4397C38.0339 54.7064 42.7339 54.7064 45.9339 57.4397C46.2006 57.6731 46.6006 57.6397 46.8672 57.4064Z" stroke="#A89365" stroke-width="2" stroke-linecap="round" stroke-linejoin="round"/>
<path d="M16.7671 37.3398H64.0004" stroke="#A89365" stroke-width="2" stroke-linecap="round" stroke-linejoin="round"/>
<path d="M40.3672 33.0733C41.8216 33.0733 43.0006 31.8943 43.0006 30.44C43.0006 28.9856 41.8216 27.8066 40.3672 27.8066C38.9129 27.8066 37.7339 28.9856 37.7339 30.44C37.7339 31.8943 38.9129 33.0733 40.3672 33.0733Z" stroke="#A89365" stroke-width="2" stroke-linecap="round" stroke-linejoin="round"/>
</svg>

<svg width="81" height="80" fill="none" xmlns="http://www.w3.org/2000/svg"><path d="M16.767 37.34v27.867H64V37.34" stroke="#A89365" stroke-width="2" stroke-linecap="round" stroke-linejoin="round"/><path d="M40.367 15.34L71.2 37.64v3.933L40.367 21.907l-30.833 19.7V37.64l10.5-7.6 20.333-14.7zm0 0L26.6 25.306V19.94h-6.566v10.133L40.367 15.34z" stroke="#A89365" stroke-width="2" stroke-linecap="round" stroke-linejoin="round"/><path d="M19.367 16.006h7.866c.367 0 .667.3.667.667v2.633c0 .367-.3.667-.666.667h-7.867a.669.669 0 01-.667-.667v-2.633c.034-.367.3-.667.667-.667z" stroke="#A89365" stroke-width="2" stroke-linecap="round" stroke-linejoin="round"/><path d="M53.834 50.44a.644.644 0 01-.933 0c-7.067-6.567-18-6.567-25.034 0a.71.71 0 01-.933 0 .606.606 0 010-.9c7.567-7.067 19.333-7.067 26.9 0 .233.233.233.633 0 .9zm-3.5 2.566c.267.234.267.634.033.9l-.033.034a.644.644 0 01-.933 0 13.479 13.479 0 00-18.067 0 .71.71 0 01-.933 0c-.267-.234-.267-.634 0-.9l.033-.034c5.6-5.166 14.267-5.166 19.9 0zm-3.467 4.4c.234-.233.267-.633.034-.866l-.034-.034c-3.7-3.233-9.233-3.233-12.966 0a.595.595 0 00-.034.867l.034.033a.675.675 0 00.933.034 8.538 8.538 0 0111.1 0c.267.233.667.2.933-.034z" fill="#A89365"/><path d="M53.834 50.44a.644.644 0 01-.933 0c-7.067-6.567-18-6.567-25.034 0a.71.71 0 01-.933 0 .606.606 0 010-.9c7.567-7.067 19.333-7.067 26.9 0 .233.233.233.633 0 .9zm-3.5 2.566c.267.234.267.634.033.9l-.033.034a.644.644 0 01-.933 0 13.479 13.479 0 00-18.067 0 .71.71 0 01-.933 0c-.267-.234-.267-.634 0-.9l.033-.034c5.6-5.166 14.267-5.166 19.9 0zm-3.467 4.4c.234-.233.267-.633.034-.866l-.034-.034c-3.7-3.233-9.233-3.233-12.966 0a.595.595 0 00-.034.867l.034.033a.675.675 0 00.933.034 8.538 8.538 0 0111.1 0c.267.233.667.2.933-.034zm-30.1-20.066H64m-23.633-4.267a2.633 2.633 0 100-5.266 2.633 2.633 0 000 5.266z" stroke="#A89365" stroke-width="2" stroke-linecap="round" stroke-linejoin="round"/></svg>
